Papirus/24x24/devices/network-card.svg

<svg xmlns="http://www.w3.org/2000/svg" width="24" height="24" version="1">
 <path style="fill:#3da7d6" d="m 6,4.9849 c -0.554,0 -1,0.446 -1,1 l 0,11 c 0,0.554 0.446,1 1,1 l 1.5,0 0,-2 5,0 0,2 9.5,0 c 0.554,0 1,-0.446 1,-1 l 0,-11 c 0,-0.554 -0.446,-1 -1,-1 z"/>
 <path style="opacity:0.1;fill:#ffffff" d="m 6,4.9849 c -0.554,0 -1,0.446 -1,1 l 0,0.5 c 0,-0.554 0.446,-1 1,-1 l 16,0 c 0.554,0 1,0.446 1,1 l 0,-0.5 c 0,-0.554 -0.446,-1 -1,-1 l -16,0 z"/>
 <path style="opacity:0.2" d="m 7.5,15.985 0,0.5 5,0 0,-0.5 -5,0 z m -2.5,1 0,0.5 c 0,0.554 0.446,1 1,1 l 1.5,0 0,-0.5 -1.5,0 c -0.554,0 -1,-0.446 -1,-1 z m 18,0 c 0,0.554 -0.446,1 -1,1 l -9.5,0 0,0.5 9.5,0 c 0.554,0 1,-0.446 1,-1 l 0,-0.5 z"/>
 <rect style="fill:#f8c44e" width="2" height="3" x="13" y="15.98"/>
 <rect style="fill:#f8c44e" width="2" height="3" x="15.5" y="15.98"/>
 <rect style="fill:#f8c44e" width="2" height="3" x="18" y="15.98"/>
 <rect style="fill:#f8c44e" width="2" height="3" x="20.5" y="15.98"/>
 <rect style="fill:#4e4e4e" width="5" height="5" x="11" y="7.99" rx="1" ry="1"/>
 <rect style="fill:#b7b7b7" width="1" height="1.5" x="12" y="6.99"/>
 <rect style="fill:#b7b7b7" width="1" height="1.5" x="14" y="6.99"/>
 <rect style="fill:#b7b7b7" width="1" height="1.5" x="12" y="12.48"/>
 <rect style="fill:#b7b7b7" width="1" height="1.5" x="14" y="12.48"/>
 <rect style="fill:#b7b7b7" width="1" height="1.5" x="8.98" y="-17" transform="matrix(0,1,-1,0,0,0)"/>
 <rect style="fill:#b7b7b7" width="1" height="1.5" x="10.98" y="-17" transform="matrix(0,1,-1,0,0,0)"/>
 <rect style="fill:#b7b7b7" width="1" height="1.5" x="8.98" y="-11.5" transform="matrix(0,1,-1,0,0,0)"/>
 <rect style="fill:#b7b7b7" width="1" height="1.5" x="10.98" y="-11.5" transform="matrix(0,1,-1,0,0,0)"/>
 <path style="opacity:0.2" d="m 13,18.985 0,0.5 2,0 0,-0.5 -2,0 z m 2.5,0 0,0.5 2,0 0,-0.5 -2,0 z m 2.5,0 0,0.5 2,0 0,-0.5 -2,0 z m 2.5,0 0,0.5 2,0 0,-0.5 -2,0 z"/>
 <path style="fill:#8e8e8e" d="m 3.0106,2.985 a 0.99653,0.9993 0 1 0 0,1.9984 l 0.99643,0 0,14.988 a 0.99653,0.9993 0 1 0 1.9929,0 l 0,-15.987 a 0.99653,0.9993 0 0 0 -0.9964,-0.999 l -1.9929,0 z"/>
 <path style="opacity:0.2;fill:#ffffff" d="m 3.0098,2.9849 a 0.99653,0.9993 0 0 0 -0.97656,1.25 0.99653,0.9993 0 0 1 0.97656,-0.75 l 1.9941,0 a 0.99653,0.9993 0 0 1 0.99609,1 l 0,-0.5 a 0.99653,0.9993 0 0 0 -0.99609,-1 l -1.9941,0 z"/>
 <path style="opacity:0.2" d="m 2.0332,4.2349 a 0.99653,0.9993 0 0 0 0.97656,1.248 l 0.99805,0 0,-0.5 -0.99805,0 a 0.99653,0.9993 0 0 1 -0.9766,-0.748 z m 1.9746,15.736 0,0.5 a 0.99653,0.9993 0 1 0 1.9922,0 l 0,-0.5 a 0.99653,0.9993 0 1 1 -1.9922,0 z"/>
</svg>

<svg xmlns="http://www.w3.org/2000/svg" width="24" height="24" version="1">
 <path style="opacity:0.2" d="M 6,5.5 C 5.446,5.5 5,5.946 5,6.5 V 17.5 C 5,18.054 5.446,18.5 6,18.5 H 7.5 V 16.5 H 12.5 V 18.5 H 22 C 22.554,18.5 23,18.054 23,17.5 V 6.5 C 23,5.946 22.554,5.5 22,5.5 Z"/>
 <path style="fill:#3da7d6" d="M 6,5 C 5.446,5 5,5.446 5,6 l 0,11 c 0,0.554 0.446,1 1,1 l 1.5,0 0,-2 5,0 0,2 9.5,0 c 0.554,0 1,-0.446 1,-1 L 23,6 C 23,5.446 22.554,5 22,5 Z"/>
 <path style="opacity:0.2;fill:#ffffff" d="m 6,4.9849 c -0.554,0 -1,0.446 -1,1 l 0,0.5 c 0,-0.554 0.446,-1 1,-1 l 16,0 c 0.554,0 1,0.446 1,1 l 0,-0.5 c 0,-0.554 -0.446,-1 -1,-1 l -16,0 z"/>
 <g style="opacity:0.2">
  <rect width="2" height="3" x="13" y="16.5"/>
  <rect width="2" height="3" x="15.5" y="16.5"/>
  <rect width="2" height="3" x="18" y="16.5"/>
  <rect width="2" height="3" x="20.5" y="16.5"/>
 </g>
 <g style="fill:#f8c44e">
  <rect width="2" height="3" x="13" y="16"/>
  <rect width="2" height="3" x="15.5" y="16"/>
  <rect width="2" height="3" x="18" y="16"/>
  <rect width="2" height="3" x="20.5" y="16"/>
 </g>
 <rect style="fill:#4e4e4e" width="5" height="5" x="11" y="8" rx="1" ry="1"/>
 <g style="fill:#b7b7b7">
  <rect width="1" height="1.5" x="12" y="7"/>
  <rect width="1" height="1.5" x="14" y="7"/>
  <rect width="1" height="1.5" x="12" y="12.5"/>
  <rect width="1" height="1.5" x="14" y="12.5"/>
  <rect width="1" height="1.5" x="9" y="-17" transform="rotate(90)"/>
  <rect width="1" height="1.5" x="11" y="-17" transform="rotate(90)"/>
  <rect width="1" height="1.5" x="9" y="-11.5" transform="rotate(90)"/>
  <rect width="1" height="1.5" x="11" y="-11.5" transform="rotate(90)"/>
 </g>
 <path style="fill:none;stroke:#000000;stroke-width:2;stroke-linecap:round;stroke-linejoin:round;opacity:0.2" d="M 3,5 H 5 V 20.5"/>
 <path style="fill:none;stroke:#b7b7b7;stroke-width:2;stroke-linecap:round;stroke-linejoin:round" d="M 3,4 H 5 V 20"/>
 <path style="opacity:0.2;fill:#ffffff" d="M 3 3 A 1.0001 1.0001 0 0 0 2.0195 4.2461 A 1.0001 1.0001 0 0 1 3 3.5 L 5 3.5 A 1.0001 1.0001 0 0 1 6 4.5 L 6 4 A 1.0001 1.0001 0 0 0 5 3 L 3 3 z"/>
</svg>
